X:17654
T:Toormore polka no 2
S:York session (Felicity)
R:Polka
O:Ireland
M:2/4
L:1/8
K:AMix
ef/e/ ce|fe a2|ef/e/ ce|fc BA|\
ef/e/ ce|fe a2|ef/e/ cB|BA A2:|*
|:FA BA|d>e f2|fe/f/ ge|ed BA|\
FA BA|d>e f2|fe/f/ ge|ed d2:|
